X:27
T:Old Friends
C:Chris Perry
S:Fiddle Player's Tunebook 1
M:4/4
L:1/8
K:G
d2 |
"G"g2 gf g2 d2 |"C"egfe "G"d2 B2 |"C"cedc "G"BdcB |"D"AGFG AFDF |
"G"d g2 f g2 d2 |"C"efge "G"d2 B2 |"C"cedc "G"BdcB |"D"cAFA "G"G2 :|
FG |
"D"ABAF "D"Adfd |"A"GAe^c "D"FAdA |"D"|1 ABAB "D"Adfd |
"A"ge^cA "D"d2 :|2
"D"ABAG FADF |"A"EG^CE "D"D4 |]
